X:1
T:Jesus All the Way
T:Jesus All the Way
T:Winfield Scott Weeden
T:Flora Kirkland, 1899
T:Public Domain Courtesy of the Cyber Hymnal™
C:Winfield Scott Weeden
Z:Public Domain
Z:Courtesy of the Cyber Hymnal™
%%score 1 ( 2 3 )
L:1/8
Q:1/4=113
M:4/4
K:Eb
V:1 treble 
V:2 bass 
V:3 bass 
V:1
 [EG]>[FA] | [GB]2 [GB]2 [FA]2 [EG]2 | [EG]2 [DF]4 [DF]>[EG] | [FA]2 [FA]2 [EG]2 [DF]2 | %4
w: 1.~I am|walk- ing thro’ this|earth- life, Oft- en|wea- ry, oft- en|
w: 2.~I am|trav- ’ling to a|ci- ty Where the|light is ne- ver|
w: 3.~I am|look- ing for re-|demp- tion Thro’ the|mer- its of my|
 [EG]6 [EG]>[FA] | [GB]2 [GB]2 [FA]2 [EG]2 | [CF]2 [Ec]4 [Ec]>[Ec] | [EB]2 [B,E]2 [EG]2 [DF]2 | %8
w: sad; But my|Sav- ior walk- eth|with me, And His|pre- sence makes me|
w: dim, And my|Sav- ior leads so|gent- ly, It is|sweet to walk with|
w: King; Bless- èd|beams of free sal-|va- tion Shine a-|bout me as I|
 [B,E]6 ||"^Refrain" [GB]>[Ge] | [Fd]2 [Ac]2 [GB]2 [FA]2 | [Ec]2 [EB]4 [GB]>[Ge] | %12
w: glad.||||
w: Him.|Je- sus|know- eth ev- ’ry|sor- row, Je- sus|
w: sing.||||
 [Fd]2 [Fc]2 [Fd]2 [Ec]2 | [DB]6 [EG]>[FA] | [GB]2 [GB]2 [FA]2 [EG]2 | %15
w: |||
w: know- eth ev- ’ry|fear; And He|whis- pers thro’ life’s|
w: |||
 [CF]2 !fermata![Ec]4 [CE]>[CF] | [EG]2 [EA]2 [EG]2 [DF]2 | [B,E]6 |] %18
w: |||
w: sha- dows, “Do not|trem- ble, I am|near!”|
w: |||
V:2
 [E,B,]>[E,B,] | [E,E]2 [E,E]2 [E,B,]2 [E,B,]2 | [B,,B,]2 [B,,B,]4 [B,,B,]>[B,,B,] | %3
 [B,,B,]2 [B,,B,]2 [B,,B,]2 [B,,B,]2 | [E,B,]6 [E,B,]>[E,B,] | [E,E]2 [E,E]2 [E,B,]2 [E,B,]2 | %6
 [A,,A,]2 [A,,A,]4 [=A,,^F,]>[A,,F,] | [B,,G,]2 [B,,G,]2 [B,,B,]2 [B,,A,]2 | [E,G,]6 || %9
 [E,B,]>[E,B,] | [B,,B,]2 [B,,B,]2 [B,,B,]2 [B,,B,]2 | [E,A,]2 [E,G,]4 [E,B,]>[E,B,] | %12
 [F,B,]2 [F,=A,]2 [F,B,]2 F,2 | [B,,B,]6 [E,B,]>[E,B,] | [E,E]2 [E,E]2 [E,B,]2 [E,B,]2 | %15
 [A,,A,]2 !fermata![A,,A,]4 [=A,,^F,]>[A,,F,] | [B,,B,]2 [B,,C]2 [B,,B,]2 [B,,A,]2 | [E,G,]6 |] %18
V:3
 x2 | x8 | x8 | x8 | x8 | x8 | x8 | x8 | x6 || x2 | x8 | x8 | x6 F,2 | x8 | x8 | x8 | x8 | x6 |] %18

